!!!!SEGMENT: 008-1c-KI-004-violoncello.krn
!!!COM: F. Chopin
!!!OPS: Op. 8
!!!OMV: 4
!!!PTL: Premier | TRIO | pour | Pianoforte, Violon et Violoncelle
!!!PPR: Kistner
!!!PPP: Leipzig
!!!NIFC-rismID: 1001002848
!!!NIFC-shelfmark: PL-Wbfc 3997/n
!!!OMD: ALLEGRETTO.
**kern	**dynam
*part2	*part2
*I"FINALE.	*
*staff2	*
*clefF4	*
*k[b-e-]	*
*g:	*
*M2/4	*
=1	=1
8r	.
=2	=2
2ree	.
=3	=3
2ree	.
=4	=4
2ree	.
=5	=5
2ree	.
=6	=6
2ree	.
=7	=7
2rdd	.
=8	=8
2rdd	.
=9	=9
!LO:TX:B:a:i:t=rallent.	!
2r	.
!LO:TX:B:b:t=1	!
.	.
=10	=10
!LO:TX:t=P:problem: liczby: "10" pod pięciolinią	!
!LO:TX:B:a:i:t=Tempo 1|o.	!
2rdd	.
*clefC4	*
=11	=11
2rF	.
=12	=12
2rF	.
=13	=13
2rF	.
=14	=14
2rF	.
=15	=15
2rF	.
=16	=16
2rF	.
=17	=17
2rF	.
=18	=18
2rF	.
=19	=19
2rF	.
=20	=20
(>2g	p
=21	=21
2f#X)	.
=22	=22
(>2c#	.
=23	=23
2d)	.
*clefF4	*
=24	=24
(>2A	.
=25	=25
8D)	.
8r	.
4r	.
=26	=26
2rF	.
=27	=27
2rF	.
=28	=28
4r	.
8r	.
(>8D	.
*clefC4	*
=29	=29
4d)	.
(>16c#XLL	.
16d	.
16en	.
16f#XJJ)	.
!!LO:LB:g=original
=30	=30
8g`>L	.
8B-`>J	.
4d^>	.
=31	=31
4A\	.
(</16G#XLL	.
16A	.
16B-	.
16AJJ)	.
=32	=32
8Gny/`<L	.
8B-`<J	.
4D	.
=33	=33
4d	.
(>16c#XLL	.
16d	.
16e-	.
16dJJ)	.
=34	=34
8g`>L	.
8B-`>J	.
(>4c#X^<	.
=35	=35
8d`>)	.
.	.
(>16B-LL	>
16AJJ	.
8G/L	.
.	]
8F#XJ	.
=36	=36
4G/)	.
8r	.
*clefF4	*
!LO:TX:a:B:i:t=con fuoco.	!
.	.
8DD`<	.
=37	=37
8GG`<	.
8r	.
(>8DL	<
16dL	.
16cJJ	[
=38	=38
8B-\L	>
8GJ)	]
8r	.
8D	.
.	<
=39	=39
(>8GL	[
8B-	.
8A	.
(>8AAJ)	.
=40	=40
4D\)	.
*clefC4	*
(>8AL	.
16aL	.
16gJJ	.
!!LO:LB:g=original
=41	=41
8fL	.
8dJ)	.
8r	.
*clefF4	*
8AA'<	.
=42	=42
8DD'<	.
8r	.
(>8DL	.
16dL	.
16cJJ	.
=43	=43
16B-LL	.
16A	.
16B-^<	.
16GJJ	.
16c^<LL	.
16A	.
16d^<	.
16DJJ	.
=44	=44
8G)	.
8r	.
4r	.
=45	=45
4r	.
8r	.
*clefC4	*
[<8G	.
=46	=46
8GL]	.
(>16gL	.
16fJJ	.
8e-L	.
8cJ	.
=47	=47
8f)	.
8r	.
8r	.
*clefG2	*
[<8c	.
=48	=48
!LO:TX:t=P:mixed beam:problem	!
8c/L]	.
(>16cc\L	<
16b-\JJ	[
8a-X/L	>
8fJ)	]
*clefF4	*
!!LO:LB:g=original
=49	=49
(>8FL	<
8G	.
8cJ)	[
8r	.
*clefC4	*
=50	=50
(>8cL	.
8dJ	.
8G\L)	.
.	<
(>16gL	.
16fJJ	[
=51	=51
8e-L	[
8enJ	.
8f\)	.
8r	.
*clefF4	*
=52	=52
!	!LO:DY:rj
(>\8DL	p
8En	.
8FJ)	.
8r	.
=53	=53
8r	.
!	!LO:DY:rj
(<8D/L	f
8C	.
8BB-J	.
=54	=54
8AA)	.
8r	.
8r	.
(>\8D	.
=55	=55
8C/)	.
8r	.
8r	.
(>8F	.
=56	=56
8En)	.
8r	.
8r	.
[<8AA	.
=57	=57
8AA]	.
4BB-^	.
(<8BB-	.
=58	=58
8AA)	.
8r	.
4r	.
=59	=59
2rF	.
=60	=60
2rF	.
!!LO:LB:g=original
=61	=61
!LO:TX:t=P:łamanie systemu:problem	!
4r	.
8r	.
!LO:TX:B:b:i:t=espress.	!
(>8AA	.
=62	=62
4A^<	.
4D	.
=63	=63
8GL)	.
(>8GJ	.
(>4En)	.
=64	=64
4A^<)	.
4D	.
=65	=65
8GL	]
8GJ	.
16qqG/LL	.
16qqF/JJ	.
4En\	.
=66	=66
4A	<
(>4Bn	[
=67	=67
8dL	>
8c	.
8B-X	.
8AJ)	]
=68	=68
(>4c	>
8GL	]
8cJ	.
=69	=69
4A	.
4F)	.
=70	=70
(>4B-	>
4F	]
=71	=71
8A`>L)	.
8AJ	.
16qqA/LL	.
16qqG/JJ	.
4F	.
=72	=72
(>4B-	>
4F	]
=73	=73
8A`>L)	.
(>8AJ	.
4F)	.
=74	=74
(>4G	>
4F	]
!!LO:PB:g=original
=75	=75
4En)	.
(>4A	.
=76	=76
8GL	>
8F	.
8En	.
8DJ)	]
=77	=77
!	!LO:DY:rj
2En^<	p
=78	=78
8D	.
8r	.
8r	.
(>8A	<
=79	=79
4B-X	[>
4C#X)	]
=80	=80
2Cn^<	.
=81	=81
(<4BBn	.
4BB-X	.
=82	=82
4AA)	.
(</4D	.
=83	=83
4GG)	.
(<4C	.
=84	=84
4FF)	.
[<4BB-^>	.
=85	=85
(>4BB-]	.
4AA	.
=86	=86
4D	.
4En)	.
=87	=87
!	!LO:DY:rj
8B-^<'L	p
(>8B-J	.
4C#X)	.
=88	=88
4D	<
4En	[
=89	=89
8B-'L	>
(>8B-J	.
4C#X)	]
!!LO:LB:g=original
=90	=90
8D	]
8r	.
4r	.
=91	=91
.	.
!LO:TX:a:B:t=1	!
2rF	.
=92	=92
(>4F	p
4D)	.
=93	=93
.	.
!LO:TX:a:B:t=1	!
2rF	.
=94	=94
[<2GG#X	p
=95	=95
2GG#X_<	<
=96	=96
2GG#X_<	.
=97	=97
2GG#X]	.
=98	=98
4AA	p
4r	.
=99	=99
.	.
!LO:TX:a:B:t=1	!
2rF	.
=100	=100
4r	.
(<4AA	.
=101	=101
2BB-	.
=102	=102
4BB-'<)	p
4r	.
=103	=103
4r	.
*clefC4	*
(>4e-	.
=104	=104
!	!LO:DY:rj
4f	pp>
4B-	]
=105	=105
!LO:TX:B:i:t=sempre delicato.	!
8e-L)	.
(>8e-J	.
4c^>)	.
=106	=106
4d	.
8cL	.
8B-J	.
=107	=107
4.G	.
8c	.
!!LO:LB:g=original
=108	=108
2A	.
=109	=109
4.G	.
8c	.
=110	=110
8A	.
8r	.
4r	.
=111	=111
2rc	.
=112	=112
2rc	.
=113	=113
2rc	.
=114	=114
2rc	.
=115	=115
2rc	.
=116	=116
2rc	.
=117	=117
!LO:TX:B:a:i:t=rallent.	!
2r	.
!LO:TX:B:b:t=1.	!
.	.
=118	=118
!LO:TX:t=P:problem: liczby: "6", "2" i "12" pod pięciolinią	!
!LO:TX:B:a:i:t=Tempo 1|o.	!
2rdd	.
=119	=119
2rc	.
=120	=120
2rc	.
=121	=121
2rc	.
=122	=122
2rc	.
=123	=123
2rc	.
=124	=124
!LO:TX:B:a:i:t=rallent.	!
2r	.
=125	=125
2rc	.
=126	=126
!LO:TX:B:a:i:t=Tempo 1|o.	!
2rdd	.
=127	=127
2rc	.
=128	=128
2rc	.
=129	=129
2rc	.
=130	=130
2rc	.
=131	=131
2rc	.
=132	=132
2rc	.
=133	=133
2rc	.
=134	=134
2rc	.
=135	=135
2rc	.
=136	=136
2rc	.
=137	=137
2rc	.
*clefF4	*
=138	=138
*clefF4	*
!LO:TX:t=P:problem: klucz F4 przed kreską taktową	!
[2A	<
=139	=139
2A_	[>
=140	=140
2A]	]
=141	=141
8D	.
8r	.
(>8CL	>
16DL	.
16E-JJ	]
=142	=142
8D`>)	.
8r	.
(>8CL	>
16DL	.
.	]
16E-JJ	.
=143	=143
8D`>)	.
8r	.
4r	.
!!LO:LB:g=original
=144	=144
4r	.
8r	.
(>8D	.
*clefC4	*
=145	=145
4d)	.
(>16c#XLL	<
16d	.
16en	.
16f#XJJ	[
=146	=146
8gL)	[
(>8B-J	.
4d^<)	.
=147	=147
4A	.
(>16G#XLL	>
16A	.
16B-	.
16AJJ	.
=148	=148
8GnL	.
.	]
8B-J	.
4D)	.
=149	=149
4d	.
(>16c#XLL	.
16d	.
16e-	.
16dJJ)	.
=150	=150
8gL	.
8B-J	.
(>4c#X^<	.
=151	=151
8d)	>
(>16B-LL	.
16AJJ	]
8GL	.
8F#XJ	.
=152	=152
4G)	.
*clefF4	*
8r	.
!	!LO:DY:rj
8DD`<	ff
=153	=153
8GG`<	.
8r	.
!	!LO:DY:rj
(>8DL	p
16dL	.
16cJJ	.
!!LO:LB:g=original
=154	=154
8B-L	.
8GJ)	.
8r	.
8D\	.
=155	=155
!	!LO:DY:rj
(<8GGL	ff
8BB-	.
8AA	.
8CJ	.
=156	=156
8BB-)	.
8r	.
!	!LO:DY:rj
8FL	p
(>16fL	>
16e-JJ	]
=157	=157
8dL	.
8B-J)	.
8r	.
!	!LO:DY:rj
8FF'<	ff
=158	=158
8BB-'<	.
8r	.
!	!LO:DY:rj
8FL	f
(>16fL	>
16e-JJ	]
=159	=159
16dLL	.
16A	.
16B-	.
16GJJ	.
16ALL	.
16G#X	.
16A^<	.
16AAJJ	.
=160	=160
8D`>)	.
8r	.
*clefC4	*
(>8AL	>
16aL	.
16gJJ	]
=161	=161
8f)	.
*clefF4	*
[<8C^	.
8CL]	.
(>16cL	.
16BnJJ	.
!!LO:LB:g=original
=162	=162
8A)	.
[>8En	.
8EL]	.
(>16enL	.
16dJJ	.
=163	=163
8c)	.
8C	.
8r	.
!	!LO:DY:rj
(<8C	ff
=164	=164
8GGL)	.
[8DJ	f
8D^<L]	.
(>16dL	.
16cJJ	.
=165	=165
8B-)	.
*clefC4	*
[8F	.
8FL]	.
(>16fL	.
16enJJ	.
=166	=166
8dL)	.
!	!LO:HP:a
[>8AJ	>
8AL]	]
(>16aL	.
16gJJ	.
=167	=167
8f)	.
8F	.
8r	.
*clefF4	*
!	!LO:DY:rj
(<8FF	p
=168	=168
4C)	.
(>4E-	<
=169	=169
4F)	[
(>4B-	.
=170	=170
4BB-)	.
(>4D-X	<
=171	=171
4E-)	[
4A-X	.
*clefC4	*
=172	=172
4g-X	>
4f	]
!!LO:LB:g=original
=173	=173
4c	.
.	<
16d-XLL	.
16e-	.
16en	.
16fJJ	[
=174	=174
4a-X	]
4gny	.
=175	=175
(>4dn	.
4e-	.
=176	=176
8A-X)	.
8r	.
8r	.
*clefF4	*
!	!LO:DY:rj
(>8F	f
=177	=177
8G)	.
(<16GGLL	.
16FFJJ	.
8EEn)	.
(>8En	.
=178	=178
8F)	.
8r	.
8r	.
(>8D-X\	.
=179	=179
8E-)	.
(<16EE-LL	.
16DD-XJJ	.
8CCL)	.
(>8CJ	.
=180	=180
8D-X)	.
4d-X^<	.
(>8c	.
=181	=181
8B-)	.
4BB-^<	.
8AA-X	.
=182	=182
!	!LO:DY:rj
8GG	p
4G	.
(>8F	.
=183	=183
4En	.
4D-X)	.
!!LO:LB:g=original
=184	=184
8CL	.
16c^<L	.
16B-JJ	.
8A-XL	.
8FJ	.
=185	=185
4En	.
(<4D-X	.
=186	=186
8CL)	f
!LO:TX:a:B:i:t=Pizz.	!
8CC'<	.
8C'<J	.
8r	.
=187	=187
4r	.
!LO:TX:a:B:i:t=Arco.	!
4E-X	.
=188	=188
8DL	.
16dL	.
16cJJ	.
8B-^<L	.
8GJ	.
=189	=189
!	!LO:DY:rj
4F#X	p
4E-	.
=190	=190
8DL	.
16dL	.
16cJJ	.
[>4Bn	.
=191	=191
8BnXL]	pp
8dJ	.
4c	.
=192	=192
2F	<[
.	.
=193	=193
!	!LO:DY:rj
2G-X	f
=194	=194
2F^<	.
=195	=195
!	!LO:DY:rj
(>4G-X	p<
4F#X)	[
=196	=196
!	!LO:DY:rj
4En`>	f
4AA	.
=197	=197
(<4GG#X	.
4FF##X	.
!!LO:LB:g=original
=198	=198
*	*above
4GG#X	<
4AAn	[
=199	=199
4GG#	>
4FF##X)	]
=200	=200
(<4GG#X	<
4AA-X)	[
=201	=201
4GGn	>
4FF#X	]
=202	=202
*	*below
4GG	<
4AA-X	[
=203	=203
4GG	.
.	>
4FF#X	]
=204	=204
8GG	[
8r	.
4r	.
=205	=205
4r	.
!	!LO:DY:rj
(>8DL	p
16dL	.
16cJJ	.
=206	=206
8BnL	.
8GJ)	.
4r	.
=207	=207
2rF	.
=208	=208
2rF	.
=209	=209
4r	.
!	!LO:DY:rj
8DL	p
(>16BnL	.
16AJJ	.
=210	=210
4G)	.
4r	.
=211	=211
2rF	.
=212	=212
2rF	.
=213	=213
2rF	.
=214	=214
2rF	.
=215	=215
!LO:TX:B:a:i:t=calando.	!
2rF	.
!LO:TX:B:t=1	!
.	.
!!LO:LB:g=original
=216	=216
!LO:TX:B:a:i:t=Tempo 1|o.	!
!LO:TX:B:i:t=espress.	!
(>4G	>
4C	]
=217	=217
8F`>L)	.
(>8FJ	.
4D)	.
=218	=218
(>4G	>
4C	]
=219	=219
8F`>L)	.
8FJ	.
4D	.
=220	=220
(>4G	<
4An	[
=221	=221
8cL	[
8B-	.
8A-X	.
8GJ)	.
=222	=222
4B-^<	.
(>8FL	.
8B-J	.
=223	=223
4G	.
4E-	.
=224	=224
4A-X	<[
4E-)	>]
=225	=225
8GL	.
8GJ	.
4E-	.
=226	=226
4A-X^<	.
4E-	.
=227	=227
8GL	.
8GJ	.
4E-	.
=228	=228
(>4F	.
4E-	.
=229	=229
4.D)	.
(>8G	.
=230	=230
8FL	>
8E-	.
8D	.
8CJ	]
!!LO:LB:g=original
=231	=231
4.D)	.
.	<
8G	[[
=232	=232
4G^<	.
4C	.
=233	=233
8FL	.
8FJ	.
4D	.
=234	=234
4G	.
4C	.
=235	=235
8FL	.
8FJ	.
4D	.
=236	=236
4G	.
4C	.
=237	=237
!LO:TX:B:i:t=poco stretto crescendo.	!
8A-XL	.
8A-J	.
4F	.
=238	=238
4B-	.
4G	.
=239	=239
8cL	.
8cJ	.
4A-X	.
=240	=240
[>2G	p
=241	=241
4G]	.
(>16AnLL	<
16B-	[
16c)	>
16B-JJ	]
=242	=242
2A	.
=243	=243
2A-X^<	.
=244	=244
4G	.
(>16DLL	.
16E-	.
16F	.
16GJJ)	.
=245	=245
8A-XL	.
(>8CJ	.
4E-)	.
!!LO:LB:g=original
=246	=246
4.E-^<	.
(>16e-^<LL	.
16d-XJJ	.
=247	=247
4c	.
4A-)	.
=248	=248
4.D^<	.
(>16d^<LL	.
16cJJ	.
=249	=249
4B-	.
4G)	.
=250	=250
4D	.
(>16C#XLL	<
16D	.
16En	.
16F#XJJ	[[
=251	=251
8GL)	[>
(>8BB-J	]
4D)	.
=252	=252
4C/	.
4B-	.
=253	=253
(>4A-	<
4e-	[
=254	=254
4d	>
4A-	]
=255	=255
4G	<
4d)	[
=256	=256
[>2c	>
=257	=257
4c]	]p
4B-	.
=258	=258
2rF	.
*clefC4	*
=259	=259
2rF	.
=260	=260
2rF	.
=261	=261
2rF	.
=262	=262
2rF	.
=263	=263
2rF	.
*clefC4	*
=264	=264
4e-	f
(>16dLL	.
16e-	.
16f	.
16e-JJ	.
!!LO:LB:g=original
=265	=265
8gL)	.
8B-`>J	>
4d	]
=266	=266
!LO:TX:B:i:t=sempre	!
4d-X	.
(>16cLL	.
16d-	.
16e-	.
16d-JJ	f
=267	=267
8gL	.
8B-`J)	.
(>4e-^<	.
=268	=268
4d-X)	.
4r	.
=269	=269
.	.
!LO:TX:a:B:t=1	!
2rc	.
*clefF4	*
=270	=270
!	!LO:DY:rj
4e-	f>
4E-	]
=271	=271
8E-'>L	.
8E-'>J	.
4EE-	.
=272	=272
4DD	.
4r	.
=273	=273
2rF	.
=274	=274
2rF	.
=275	=275
2rF	.
=276	=276
2rF	.
=277	=277
2rF	.
=278	=278
2rF	.
=279	=279
2rF	.
=280	=280
!	!LO:DY:rj
(>\4C	f
4E-	.
=281	=281
4C\	.
4D\)	.
=282	=282
(>4GG'<	.
4BB-'<	.
=283	=283
4D	.
16C#XLL	<
16D	.
16En	.
16F#XJJ	[
=284	=284
8GL)	.
8BB-`>J	.
4D^<	.
=285	=285
(>4c	.
4A	.
!!LO:LB:g=original
=286	=286
4G	>
8FL	]
8E-J)	.
=287	=287
4D	.
16C#XLL	.
16D	.
16En	.
16F#XJJ	.
=288	=288
8GL	[
8BB-J	.
4D	.
=289	=289
4c	.
4A	.
=290	=290
*^	*
8B-	2D 2GG	.
8rA	.	.
4rA	.	.
*v	*v	*
=291	=291
!	!LO:DY:rj
(>4D [<4GG	p
!LO:S:s=1:note:problem:note-level slur	!
!LO:TX:B:i:t=sempre più	!
(>4G) 4GG_<	.
=292	=292
(>4D) 4GG_<	.
!LO:S:s=1:note:problem:note-level slur	!
(>4G) 4GG_<	.
=293	=293
(>4D) 4GG_<	.
!LO:S:s=1:note:problem:note-level slur	!LO:HP:B:i:t=cres.
(>4G) 4GG_	<
=294	=294
(>4D) 4GG_<	.
!LO:S:s=1:note:problem:note-level slur	!
(>4G) 4GG_<	.
=295	=295
(>4D) 4GG_<	.
!LO:S:s=1:note:problem:note-level slur	!
(>4G) 4GG_<	.
=296	=296
8D) 8GG])	.
8r	.
4r	.
=297	=297
.	.
!LO:TX:a:B:t=1	!
2rF	.
!LO:TX:B:i:t=sempre più	!
=298	=298
[>2D [<2GG	.
=299	=299
[>2D] [<2GG]	.
=300	=300
[>2D] [<2GG]	.
=301	=301
[>2D] [<2GG]	f
=302	=302
8D] 8GG]	.
8r	.
!LO:TX:B:t=FINE.	!
4r	.
=303	=303
!	!LO:DY:rj
4B-\ 4D\ 4GG\	ff
4r	.
=304	=304
2GG/;<	.
==	==
*-	*-
!!!system-decoration: s1,s2{(s3,s4)}
!!!RDF**kern: > = above
!!!RDF**kern: < = below
!!title: @{OTL}; @{OPS} @{ONM} publisher: @{PPR}
!!!RDF**kern: N = linked
!!!RDF**dynam: > = "dimin.", fontstyle = "normal"
!!!RDF**dynam: < = "cres.", fontstyle = "italic"
!!!RDF**kern: i = editorial accidental
!!!ENC: Mateusz Mrugas
!!!END: 2019-10-26
!!!EED: Jędrzej Mróz
!!!EST: revision finished 2019-10-28
!!!rism-genre: Trio
!!!rism-key: G minor
!!!rism-opus: op.  8
!!!rism-title: Trio in G minor op.  8
!!!rism-permalink: https://opac.rism.info/search?id=1001002848&View=rism
